img/landing-nalog/icons/icon-advantage-07.svg

<svg width="72" height="80" viewBox="0 0 72 80" fill="none" xmlns="http://www.w3.org/2000/svg">
<path d="M70.7713 53.7241C70.1235 53.7241 69.5986 54.2491 69.5986 54.8968V68.3924C69.5986 69.6653 68.563 70.701 67.2901 70.701H33.5126V67.2535C33.5126 66.9014 33.4437 66.4517 33.2078 65.9578C34.6601 65.4253 35.8582 64.7746 36.6848 64.0082H39.0489C40.9307 64.0082 42.4617 62.4771 42.4617 60.5952C42.4617 58.7133 40.9307 57.1824 39.0489 57.1824H37.9332V54.9249C37.9332 54.8986 37.9322 54.8719 37.9314 54.8454H39.0489C40.9307 54.8454 42.4617 53.3143 42.4617 51.4324C42.4617 49.5505 40.9307 48.0196 39.0489 48.0196H36.1453C35.0845 48.0196 34.1353 48.5062 33.5089 49.2677C33.5106 49.2266 33.5128 49.1857 33.5128 49.1441V44.439C34.1392 45.1976 35.0867 45.6821 36.1451 45.6821H39.0487C40.9306 45.6821 42.4615 44.1512 42.4615 42.2693C42.4615 40.3874 40.9306 38.8565 39.0487 38.8565H37.9331V34.2788H39.0487C40.9306 34.2788 42.4615 32.7479 42.4615 30.866C42.4615 28.9842 40.9306 27.4532 39.0487 27.4532H36.145C35.2162 27.4532 34.3356 27.8371 33.7001 28.4881C30.4787 27.1924 25.8262 26.5279 21.2045 26.5279C19.7369 26.5279 18.2663 26.5951 16.8391 26.7281V4.6539C16.8391 3.38093 17.8747 2.34531 19.1477 2.34531H28.6372C29.2848 2.34531 29.8098 1.82031 29.8098 1.17265C29.8098 0.524999 29.2848 0 28.6372 0H19.1477C16.5814 0 14.4938 2.08781 14.4938 4.6539V27.0134C8.89627 27.8604 4.47612 29.8079 4.47612 32.784V38.2229C0.833787 39.6307 0.0556641 41.3691 0.0556641 42.596V49.1441C0.0556641 51.0818 1.92941 52.5833 4.78128 53.6293C4.5455 54.1227 4.47628 54.5721 4.47628 54.9249V61.473C4.47628 61.9285 4.58019 62.3597 4.77565 62.7668C0.915819 64.1722 0.0556641 65.9503 0.0556641 67.2536V73.8017C0.0556641 77.7036 7.41018 79.5578 13.7081 79.9602C13.7336 79.9617 13.7588 79.9627 13.7839 79.9627C14.3974 79.9627 14.9134 79.4855 14.9531 78.8647C14.9944 78.2183 14.5039 77.6608 13.8575 77.6195C5.8605 77.1087 2.40097 74.8441 2.40097 73.8017V70.612C5.47925 72.5236 11.1547 73.5092 16.7841 73.5092C22.4134 73.5092 28.0889 72.5236 31.1672 70.612V73.8017C31.1672 74.9706 27.1242 77.2584 19.0689 77.6561C18.422 77.688 17.9234 78.2383 17.9555 78.8852C17.9864 79.5125 18.5047 80 19.1256 80C19.1452 80 19.1647 79.9995 19.1844 79.9986C26.3162 79.6466 33.5126 77.5939 33.5126 73.8017V73.0466H67.2902C69.8565 73.0466 71.9441 70.9588 71.9441 68.3927V54.8971C71.9441 54.2493 71.419 53.7241 70.7713 53.7241ZM37.9331 61.473V59.528H39.0487V59.5279C39.6373 59.5279 40.1161 60.0066 40.1161 60.5952C40.1161 61.1838 39.6371 61.6627 39.0487 61.6627H37.927C37.9311 61.6 37.9331 61.5366 37.9331 61.473ZM36.1451 50.3649H39.0487C39.6373 50.3649 40.1161 50.8436 40.1161 51.4322C40.1161 52.0208 39.6371 52.4997 39.0487 52.4997H36.8118C36.394 52.0844 35.8334 51.6686 35.0917 51.2676C35.1712 50.7572 35.6126 50.3649 36.1451 50.3649ZM35.5878 54.9247C35.5878 55.3908 34.7984 56.4375 31.8401 57.4041C29.0164 58.3268 25.2394 58.8349 21.2047 58.8349C11.8981 58.8349 6.82159 56.2518 6.82159 54.9247C6.82128 54.7216 6.95206 54.5086 7.10143 54.3307C9.9558 55.0388 13.3783 55.3997 16.7839 55.3997C22.5884 55.3997 28.442 54.3518 31.4467 52.3215C34.7123 53.3107 35.5878 54.4488 35.5878 54.9247ZM39.0489 41.2021C39.6373 41.202 40.1161 41.6807 40.1161 42.2694C40.1161 42.858 39.6371 43.3368 39.0487 43.3368H36.1451C35.7834 43.3368 35.4639 43.1555 35.2708 42.8798C36.1376 42.3863 36.825 41.8266 37.2843 41.2021H39.0489ZM36.1451 29.7992H39.0487C39.6373 29.7992 40.1161 30.2779 40.1161 30.8665C40.1161 31.4551 39.6371 31.9338 39.0487 31.9338H37.8057C37.564 31.1362 36.9839 30.424 36.1406 29.7993C36.1423 29.7993 36.1436 29.7992 36.1451 29.7992ZM10.5691 30.3046C13.3928 29.382 17.1697 28.8738 21.2045 28.8738C30.5111 28.8738 35.5876 31.457 35.5876 32.7842C35.5876 33.2502 34.7983 34.297 31.84 35.2635C29.0162 36.1862 25.2392 36.6943 21.2045 36.6943C11.898 36.6943 6.82143 34.1112 6.82143 32.7842C6.82128 32.3179 7.61081 31.2712 10.5691 30.3046ZM6.82112 36.1426C9.89955 38.0541 15.575 39.0398 21.2044 39.0398C26.8337 39.0398 32.5092 38.054 35.5875 36.1426V39.3323C35.5875 39.6988 35.0986 40.4244 33.4511 41.1877C33.4467 41.1896 33.4426 41.1916 33.4384 41.1935C32.9936 41.399 32.4658 41.6071 31.8397 41.8116C29.0159 42.7343 25.2391 43.2424 21.2042 43.2424C11.8978 43.2424 6.82112 40.6593 6.82112 39.3321V36.1426ZM4.77972 40.6343C6.35503 43.8919 13.8199 45.5877 21.2045 45.5877C23.1198 45.5877 25.0403 45.4733 26.8623 45.2476C24.1067 46.0591 20.5308 46.5062 16.7842 46.5062C7.47768 46.5062 2.40113 43.923 2.40113 42.5959C2.40097 42.111 3.14488 41.3523 4.77972 40.6343ZM2.40097 49.144V45.9543C5.47925 47.8658 11.1547 48.8515 16.7841 48.8515C22.0928 48.8515 27.9859 47.9312 31.1672 45.9579V49.144C31.1672 49.6101 30.3778 50.6568 27.4195 51.6233C24.5958 52.546 20.8189 53.0541 16.7841 53.0541C7.47752 53.0543 2.40097 50.4713 2.40097 49.144ZM27.4195 69.733C24.5958 70.6556 20.8189 71.1638 16.7841 71.1638C7.47752 71.1638 2.40097 68.5806 2.40097 67.2535C2.40097 66.596 3.69941 65.5135 6.54206 64.6503C9.5469 66.6805 15.4003 67.7285 21.2045 67.7285C24.6105 67.7285 28.033 67.3675 30.8875 66.6592C31.0358 66.836 31.1672 67.0499 31.1672 67.2535C31.1672 67.7196 30.3778 68.7663 27.4195 69.733ZM31.8398 63.9522C29.0162 64.8749 25.2392 65.383 21.2044 65.383C11.898 65.383 6.82128 62.7999 6.82128 61.4728V58.2832C9.89955 60.1947 15.575 61.1803 21.2044 61.1803C26.8337 61.1803 32.5092 60.1947 35.5875 58.2832V61.4728C35.5876 61.9389 34.7983 62.9857 31.8398 63.9522Z" fill="#007A65"/>
<path d="M67.2903 0H33.9812C33.3336 0 32.8086 0.525 32.8086 1.17266C32.8086 1.82031 33.3336 2.34531 33.9812 2.34531H67.2905C68.5634 2.34531 69.5991 3.38094 69.5991 4.65391V49.5528C69.5991 50.2005 70.1239 50.7255 70.7717 50.7255C71.4195 50.7255 71.9444 50.2005 71.9444 49.5528V4.65391C71.9444 2.08781 69.8566 0 67.2903 0Z" fill="#007A65"/>
<path d="M65.1925 9.5811C65.1925 8.93345 64.6676 8.40845 64.0198 8.40845H22.4178C21.7701 8.40845 21.2451 8.93345 21.2451 9.5811V21.1078C21.2451 21.7555 21.7701 22.2805 22.4178 22.2805H64.02C64.6678 22.2805 65.1926 21.7555 65.1926 21.1078V9.5811H65.1925ZM62.8471 19.9352H23.5904V10.7538H62.8471V19.9352Z" fill="#007A65"/>
<path d="M50.293 27.4536H47.3894C45.5075 27.4536 43.9766 28.9846 43.9766 30.8664C43.9766 32.7483 45.5075 34.2792 47.3894 34.2792H50.293C52.1748 34.2792 53.7058 32.7483 53.7058 30.8664C53.7058 28.9846 52.1747 27.4536 50.293 27.4536ZM50.293 31.9338H47.3894C46.8008 31.9338 46.322 31.455 46.322 30.8664C46.322 30.2778 46.8009 29.7991 47.3894 29.7991H50.293C50.8816 29.7991 51.3603 30.2778 51.3603 30.8664C51.3603 31.455 50.8814 31.9338 50.293 31.9338Z" fill="#007A65"/>
<path d="M61.5371 27.4536H58.6335C56.7516 27.4536 55.2207 28.9846 55.2207 30.8664C55.2207 32.7483 56.7516 34.2792 58.6335 34.2792H61.5371C63.419 34.2792 64.9499 32.7483 64.9499 30.8664C64.9499 28.9846 63.419 27.4536 61.5371 27.4536ZM61.5371 31.9338H58.6335C58.0449 31.9338 57.5662 31.455 57.5662 30.8664C57.5662 30.2778 58.0451 29.7991 58.6335 29.7991H61.5371C62.1257 29.7991 62.6045 30.2778 62.6045 30.8664C62.6045 31.455 62.1257 31.9338 61.5371 31.9338Z" fill="#007A65"/>
<path d="M50.293 38.8564H47.3894C45.5075 38.8564 43.9766 40.3874 43.9766 42.2693C43.9766 44.1511 45.5075 45.6821 47.3894 45.6821H50.293C52.1748 45.6821 53.7058 44.1511 53.7058 42.2693C53.7058 40.3874 52.1747 38.8564 50.293 38.8564ZM50.293 43.3368H47.3894C46.8008 43.3368 46.322 42.858 46.322 42.2694C46.322 41.6808 46.8009 41.2021 47.3894 41.2021H50.293C50.8816 41.2021 51.3603 41.6808 51.3603 42.2694C51.3602 42.858 50.8814 43.3368 50.293 43.3368Z" fill="#007A65"/>
<path d="M61.5371 38.8564H58.6335C56.7516 38.8564 55.2207 40.3874 55.2207 42.2693C55.2207 44.1511 56.7516 45.6821 58.6335 45.6821H61.5371C63.419 45.6821 64.9499 44.1511 64.9499 42.2693C64.9499 40.3874 63.419 38.8564 61.5371 38.8564ZM61.5371 43.3368H58.6335C58.0449 43.3368 57.5662 42.858 57.5662 42.2694C57.5662 41.6808 58.0451 41.2021 58.6335 41.2021H61.5371C62.1257 41.2021 62.6045 41.6808 62.6045 42.2694C62.6045 42.858 62.1257 43.3368 61.5371 43.3368Z" fill="#007A65"/>
<path d="M50.293 48.0195H47.3894C45.5075 48.0195 43.9766 49.5505 43.9766 51.4323C43.9766 53.3142 45.5075 54.8453 47.3894 54.8453H50.293C52.1748 54.8453 53.7058 53.3142 53.7058 51.4323C53.7058 49.5505 52.1747 48.0195 50.293 48.0195ZM50.293 52.4998H47.3894C46.8008 52.4998 46.322 52.0209 46.322 51.4323C46.322 50.8437 46.8009 50.365 47.3894 50.365H50.293C50.8816 50.365 51.3603 50.8437 51.3603 51.4323C51.3602 52.0209 50.8814 52.4998 50.293 52.4998Z" fill="#007A65"/>
<path d="M61.5371 48.0195H58.6335C56.7516 48.0195 55.2207 49.5505 55.2207 51.4323C55.2207 53.3142 56.7516 54.8453 58.6335 54.8453H61.5371C63.419 54.8453 64.9499 53.3142 64.9499 51.4323C64.9499 49.5505 63.419 48.0195 61.5371 48.0195ZM61.5371 52.4998H58.6335C58.0449 52.4998 57.5662 52.0209 57.5662 51.4323C57.5662 50.8437 58.0451 50.365 58.6335 50.365H61.5371C62.1257 50.365 62.6045 50.8437 62.6045 51.4323C62.6045 52.0209 62.1257 52.4998 61.5371 52.4998Z" fill="#007A65"/>
<path d="M50.293 57.1824H47.3894C45.5075 57.1824 43.9766 58.7133 43.9766 60.5952C43.9766 62.4771 45.5075 64.0082 47.3894 64.0082H50.293C52.1748 64.0082 53.7058 62.4771 53.7058 60.5952C53.7056 58.7133 52.1747 57.1824 50.293 57.1824ZM50.293 61.6625H47.3894C46.8008 61.6625 46.322 61.1836 46.322 60.595C46.322 60.0064 46.8009 59.5277 47.3894 59.5277H50.293C50.8816 59.5277 51.3603 60.0064 51.3603 60.595C51.3602 61.1836 50.8814 61.6625 50.293 61.6625Z" fill="#007A65"/>
<path d="M61.5371 57.1824H58.6335C56.7516 57.1824 55.2207 58.7133 55.2207 60.5952C55.2207 62.4771 56.7516 64.0082 58.6335 64.0082H61.5371C63.419 64.0082 64.9499 62.4771 64.9499 60.5952C64.9499 58.7133 63.419 57.1824 61.5371 57.1824ZM61.5371 61.6625H58.6335C58.0449 61.6625 57.5662 61.1836 57.5662 60.595C57.5662 60.0064 58.0451 59.5277 58.6335 59.5277H61.5371C62.1257 59.5277 62.6045 60.0064 62.6045 60.595C62.6045 61.1836 62.1257 61.6625 61.5371 61.6625Z" fill="#007A65"/>
<path d="M10.6962 23.1531H6.73125C6.08359 23.1531 5.55859 23.6781 5.55859 24.3257C5.55859 24.9734 6.08359 25.4984 6.73125 25.4984H10.6962C11.3439 25.4984 11.8689 24.9734 11.8689 24.3257C11.8689 23.6781 11.3439 23.1531 10.6962 23.1531Z" fill="#007A65"/>
<path d="M10.6962 19.5193H6.73125C6.08359 19.5193 5.55859 20.0443 5.55859 20.6919C5.55859 21.3396 6.08359 21.8646 6.73125 21.8646H10.6962C11.3439 21.8646 11.8689 21.3396 11.8689 20.6919C11.8689 20.0443 11.3439 19.5193 10.6962 19.5193Z" fill="#007A65"/>
<path d="M10.6883 15.4875C10.0406 15.4875 9.51562 16.0125 9.51562 16.6602C9.51562 17.3079 10.0406 17.8329 10.6883 17.8329H10.7039C11.3516 17.8329 11.8687 17.3079 11.8687 16.6602C11.8687 16.0125 11.3359 15.4875 10.6883 15.4875Z" fill="#007A65"/>
</svg>

<svg width="72" height="80" fill="none" xmlns="http://www.w3.org/2000/svg"><path d="M70.771 53.724c-.647 0-1.172.525-1.172 1.173v13.495a2.311 2.311 0 01-2.309 2.309H33.513v-3.447c0-.353-.07-.802-.305-1.296 1.452-.533 2.65-1.183 3.477-1.95h2.364a3.417 3.417 0 003.413-3.413 3.417 3.417 0 00-3.413-3.413h-1.116v-2.257c0-.026 0-.053-.002-.08h1.118a3.417 3.417 0 003.413-3.413 3.417 3.417 0 00-3.413-3.412h-2.904c-1.06 0-2.01.486-2.636 1.248.002-.041.004-.082.004-.124V44.44a3.408 3.408 0 002.632 1.243h2.904a3.417 3.417 0 003.413-3.413 3.417 3.417 0 00-3.413-3.413h-1.116V34.28h1.116a3.417 3.417 0 003.413-3.413 3.417 3.417 0 00-3.413-3.413h-2.904c-.929 0-1.81.384-2.445 1.035-3.221-1.296-7.874-1.96-12.496-1.96-1.467 0-2.938.067-4.365.2V4.654a2.311 2.311 0 012.309-2.309h9.49a1.173 1.173 0 000-2.345h-9.49a4.66 4.66 0 00-4.654 4.654v22.36c-5.598.846-10.018 2.794-10.018 5.77v5.439C.834 39.63.056 41.369.056 42.596v6.548c0 1.938 1.873 3.44 4.725 4.485a2.996 2.996 0 00-.305 1.296v6.548c0 .456.104.887.3 1.294-3.86 1.405-4.72 3.183-4.72 4.487v6.548c0 3.902 7.354 5.756 13.652 6.158a1.173 1.173 0 00.15-2.34C5.86 77.109 2.4 74.844 2.4 73.802v-3.19c3.078 1.912 8.754 2.897 14.383 2.897 5.63 0 11.305-.985 14.383-2.897v3.19c0 1.169-4.043 3.456-12.098 3.854A1.173 1.173 0 1019.184 80c7.132-.352 14.329-2.405 14.329-6.197v-.755H67.29a4.66 4.66 0 004.654-4.654V54.897c0-.648-.525-1.173-1.173-1.173zm-32.838 7.749v-1.945h1.116a1.068 1.068 0 010 2.135h-1.122a2.91 2.91 0 00.006-.19zm-1.788-11.108h2.904a1.068 1.068 0 010 2.135h-2.237c-.418-.416-.979-.831-1.72-1.232.08-.51.52-.903 1.053-.903zm-.557 4.56c0 .466-.79 1.513-3.748 2.48-2.824.922-6.6 1.43-10.635 1.43-9.307 0-14.383-2.583-14.383-3.91 0-.203.13-.416.28-.594 2.854.708 6.276 1.069 9.682 1.069 5.804 0 11.658-1.048 14.663-3.078 3.265.989 4.14 2.127 4.14 2.603zm3.46-13.723a1.068 1.068 0 010 2.135h-2.903c-.362 0-.681-.181-.874-.457.867-.494 1.554-1.053 2.013-1.678h1.765zM36.146 29.8h2.904a1.068 1.068 0 010 2.135h-1.243c-.242-.798-.822-1.51-1.665-2.135h.004zm-25.576.506c2.824-.923 6.6-1.431 10.635-1.431 9.307 0 14.384 2.583 14.384 3.91 0 .466-.79 1.513-3.748 2.48-2.824.922-6.6 1.43-10.636 1.43-9.306 0-14.383-2.583-14.383-3.91 0-.466.79-1.513 3.748-2.48zm-3.748 5.838c3.079 1.911 8.754 2.897 14.383 2.897 5.63 0 11.305-.986 14.383-2.897v3.19c0 .366-.488 1.091-2.136 1.855l-.013.005a14.7 14.7 0 01-1.598.619c-2.824.922-6.6 1.43-10.636 1.43-9.306 0-14.383-2.583-14.383-3.91v-3.19zm-2.042 4.49c1.575 3.258 9.04 4.954 16.424 4.954 1.916 0 3.836-.115 5.658-.34-2.755.811-6.331 1.258-10.078 1.258-9.306 0-14.383-2.583-14.383-3.91 0-.485.744-1.244 2.379-1.962zm-2.38 8.51v-3.19c3.078 1.912 8.754 2.898 14.383 2.898 5.309 0 11.202-.92 14.383-2.894v3.186c0 .466-.79 1.513-3.748 2.48-2.823.922-6.6 1.43-10.635 1.43-9.306 0-14.383-2.583-14.383-3.91zm25.018 20.589c-2.823.923-6.6 1.43-10.635 1.43-9.306 0-14.383-2.582-14.383-3.91 0-.657 1.298-1.74 4.141-2.603 3.005 2.03 8.858 3.078 14.663 3.078 3.405 0 6.828-.36 9.683-1.069.148.177.28.39.28.594 0 .467-.79 1.513-3.748 2.48zm4.42-5.78c-2.823.922-6.6 1.43-10.635 1.43-9.306 0-14.383-2.583-14.383-3.91v-3.19c3.079 1.912 8.754 2.897 14.383 2.897 5.63 0 11.305-.985 14.383-2.897v3.19c0 .466-.789 1.513-3.747 2.48zM67.29 0H33.981a1.173 1.173 0 000 2.345h33.31a2.311 2.311 0 012.308 2.309v44.899a1.173 1.173 0 102.345 0v-44.9A4.66 4.66 0 0067.29 0z" fill="#007A65"/><path d="M65.192 9.581c0-.648-.524-1.173-1.172-1.173H22.418c-.648 0-1.173.525-1.173 1.173v11.527c0 .648.525 1.172 1.173 1.172H64.02c.648 0 1.173-.524 1.173-1.172V9.58zm-2.345 10.354H23.59v-9.181h39.257v9.181zm-12.554 7.519h-2.904a3.417 3.417 0 00-3.412 3.412 3.417 3.417 0 003.412 3.413h2.904a3.417 3.417 0 003.413-3.413 3.417 3.417 0 00-3.413-3.412zm0 4.48h-2.904a1.069 1.069 0 010-2.135h2.904a1.068 1.068 0 010 2.135zm11.244-4.48h-2.904a3.417 3.417 0 00-3.412 3.412 3.417 3.417 0 003.413 3.413h2.903a3.417 3.417 0 003.413-3.413 3.417 3.417 0 00-3.413-3.412zm0 4.48h-2.904a1.068 1.068 0 010-2.135h2.904a1.068 1.068 0 010 2.135zm-11.244 6.922h-2.904a3.417 3.417 0 00-3.412 3.413 3.417 3.417 0 003.412 3.413h2.904a3.417 3.417 0 003.413-3.413 3.417 3.417 0 00-3.413-3.413zm0 4.48h-2.904a1.069 1.069 0 010-2.134h2.904a1.068 1.068 0 010 2.135zm11.244-4.48h-2.904a3.417 3.417 0 00-3.412 3.413 3.417 3.417 0 003.413 3.413h2.903a3.417 3.417 0 003.413-3.413 3.417 3.417 0 00-3.413-3.413zm0 4.48h-2.904a1.068 1.068 0 010-2.134h2.904a1.068 1.068 0 010 2.135zM50.293 48.02h-2.904a3.417 3.417 0 00-3.412 3.412 3.417 3.417 0 003.412 3.413h2.904a3.417 3.417 0 003.413-3.413 3.417 3.417 0 00-3.413-3.413zm0 4.48h-2.904a1.069 1.069 0 010-2.135h2.904a1.068 1.068 0 010 2.135zm11.244-4.48h-2.904a3.417 3.417 0 00-3.412 3.412 3.417 3.417 0 003.413 3.413h2.903a3.417 3.417 0 003.413-3.413 3.417 3.417 0 00-3.413-3.413zm0 4.48h-2.904a1.069 1.069 0 010-2.135h2.904a1.068 1.068 0 010 2.135zm-11.244 4.682h-2.904a3.417 3.417 0 00-3.412 3.413 3.417 3.417 0 003.412 3.413h2.904a3.417 3.417 0 003.413-3.413 3.417 3.417 0 00-3.413-3.413zm0 4.48h-2.904a1.069 1.069 0 010-2.135h2.904a1.068 1.068 0 010 2.136zm11.244-4.48h-2.904a3.417 3.417 0 00-3.412 3.413 3.417 3.417 0 003.413 3.413h2.903a3.417 3.417 0 003.413-3.413 3.417 3.417 0 00-3.413-3.413zm0 4.48h-2.904a1.069 1.069 0 010-2.134h2.904a1.068 1.068 0 010 2.135zM10.696 23.153H6.731a1.173 1.173 0 100 2.345h3.965a1.173 1.173 0 100-2.345zm0-3.633H6.731a1.173 1.173 0 100 2.345h3.965a1.173 1.173 0 100-2.346zm-.008-4.032a1.173 1.173 0 100 2.345h.016c.648 0 1.165-.525 1.165-1.173a1.18 1.18 0 00-1.18-1.172z" fill="#007A65"/></svg>
